dist/assets/icons/community.svg

<svg width="24" height="24" viewBox="0 0 24 24" fill="none" xmlns="http://www.w3.org/2000/svg">
<path fill-rule="evenodd" clip-rule="evenodd" d="M13 0V4.06189C14.4608 4.24404 15.7992 4.82001 16.9057 5.68021L19.7783 2.80761L21.1925 4.22183L18.3199 7.09444C19.18 8.20095 19.756 9.53933 19.9381 11H24V13H19.9381C19.756 14.4607 19.18 15.7992 18.3199 16.9057L21.1924 19.7783L19.7781 21.1925L16.9056 18.3199C15.7991 19.18 14.4607 19.756 13 19.9381V24H11V19.9381C9.53933 19.756 8.20093 19.18 7.09441 18.3199L4.22204 21.1924L2.8078 19.7781L5.68019 16.9057C4.82001 15.7992 4.24404 14.4608 4.06189 13H0V11H4.06189C4.24404 9.53933 4.81997 8.20092 5.68011 7.0944L2.80765 4.22196L4.22187 2.80775L7.09431 5.68019C8.20084 4.82 9.53933 4.24404 11 4.06189V0H13ZM12 6C8.68629 6 6 8.68629 6 12C6 15.3137 8.68629 18 12 18C15.3137 18 18 15.3137 18 12C18 8.68629 15.3137 6 12 6Z" fill="#FF5C00"/>
</svg>

<svg width="24" height="24" fill="none" xmlns="http://www.w3.org/2000/svg"><path fill-rule="evenodd" clip-rule="evenodd" d="M13 0v4.062a7.96 7.96 0 0 1 3.906 1.618l2.872-2.872 1.415 1.414-2.873 2.872A7.96 7.96 0 0 1 19.938 11H24v2h-4.062a7.96 7.96 0 0 1-1.618 3.906l2.872 2.872-1.414 1.415-2.872-2.873A7.96 7.96 0 0 1 13 19.938V24h-2v-4.062a7.96 7.96 0 0 1-3.906-1.618l-2.872 2.872-1.414-1.414 2.872-2.872A7.96 7.96 0 0 1 4.062 13H0v-2h4.062A7.96 7.96 0 0 1 5.68 7.094L2.808 4.222l1.414-1.414L7.094 5.68A7.96 7.96 0 0 1 11 4.062V0h2Zm-1 6a6 6 0 1 0 0 12 6 6 0 0 0 0-12Z" fill="#FF5C00"/></svg>
